X:1
T:Alleluia! Alleluia!
T:Text: Christopher Wordsworth, 1862, alt. Tune: Thomas J. Williams, 1890
T:87 87 D EBENEZER www.hymnary.org/text/alleluia_alleluia_hearts_to_heaven_and_v
T:Alleluia! Alleluia!
T:This hymn is in the public domain. You may freely use this score for personal and congregational worship. If you reproduce the score, please credit Hymnary.org as the source. 
T:This hymn is in the public domain. You may freely use this score for personal and congregational worship. If you reproduce the score, please credit Hymnary.org as the source. 
T:This hymn is in the public domain. You may freely use this score for personal and congregational worship. If you reproduce the score, please credit Hymnary.org as the source. 
Z:This hymn is in the public domain. You may freely use this score for personal and congregational worship. If you reproduce the score, please credit Hymnary.org as the source.
%%score ( 1 2 ) ( 3 4 5 )
L:1/8
M:4/4
K:Ab
V:1 treble nm="SOPRANO ALTO" snm="S. A."
V:2 treble 
V:3 bass nm="TENOR BASS" snm="T. B."
V:4 bass 
V:5 bass 
V:1
"^1""^2""^3""^4" F2 (3FGA G2 F2 | G2 (3GAB A>G F2 | c2 (3Bcd | c>B A2 | B>A G2 F4 | %5
w: Al- le- * * lu- ia,|al- le- * * lu- * ia!|Hearts to * *|heaven * and|voic- * es raise.|
w: Al- le- * * lu- ia,|Christ is * * ri- * sen!|Death at * *|last * has|met * de- feat.|
w: Christ is * * ris- en,|Christ the * * first- * fruits|of the * *|ho- * ly|har- * vest field,|
w: Al- le- * * lu- ia,|al- le- * * lu- * ia!|Glo- ry * *|be * to|God * on high;|
 F2 (3FGA G2 F2 |1 G2 (3GAB A>G F2 | c2 (3Bcd c>B A2 | B>A G2 F4 ||"^Page 2" c2 (3ABc B2 B2 | %10
w: Sing to * * God a|hymn of * * glad- * ness,|sing to * * God * a|hymn * of praise.|He who * * on the|
w: See the * * an- cient|powers of * * e- * vil|in con- * * fu- * sion|and * re- treat.|Once he * * died and|
w: which will * * all its|full a- * * bun- * dance|at his * * sec- * ond|com- * ing yield.|Then the * * gold- en|
w: al- le- * * lu- ia!|to the * * Sav- * ior,|who has * * won * the|vic- * to- ry;|al- le- * * lu- ia!|
 A2 (3FGA G2 G2 | F2"^Alleluia! Alleluia!" (3FGA | B2 B2 | A2 (3BAB c4 | F2 (3FGA G2 F2 | %15
w: cross a * * vic- tim|for the * *|world's sal-|va- tion * * bled,|Je- sus * * Christ, the|
w: once was * * bur- ied;|now he * *|lives for-|ev- er- * * more—|Je- sus * * Christ, the|
w: ears of * * har- vest|will their * *|heads be-|fore him * * wave,|rip- ened * * by his|
w: to the * * spir- it,|fount of * *|love and|sac- ti- * * ty:|al- le- * * lu- ia,|
 G2 (3GAB A>G F2 | c2 (3Bcd c>B A2 | B>A G2 F4 |] %18
w: King of * * glo- * ry,|now is * * ri- * sen|from * the dead.|
w: world's Re- * * dee- * mer,|whom we * * wor- * ship|and * a- dore.|
w: glo- rious * * sun- * shine|from the * * fur- * rows|of * the grave.|
w: al- le- * * lu- * ia!|to the * * tri- * une|Maj- * es- ty.|
V:2
 C2 C2 =E2 F2 | F2 =E2 F2 C2 | E2 (3:2:2_E2 F | G2 F2 | F2 =E2 F4 | C2 C2 =E2 F2 |1 F2 =E2 F2 C2 | %7
 E2 (3:2:2_E2 F G2 F2 | F2 =E2 F4 || _E2 E2 E2 E2 | C2 F2 F2 =E2 | F2 C2 | F2 E2 | C2 F2 =E4 | %14
 A,2 F2 =E2 F2 | F2 =E2 F2 F2 | E2 E2 E2 F2 | F2 =E2 F4 |] %18
V:3
 x8 | x8 | x4 | x4 | x8 | x8 |1 x8 | x8 | x8 || x8 | x8 | x4 | x4 | x8 | x8 | x8 | x8 | x4 F,,4 |] %18
V:4
 A,2 C2 C2 A,2 | D2 C2 C>B, A,2 | A,2 (3:2:2B,2 A, | C2 C2 | D>C B,2 A,4 | A,2 C2 C2 A,2 |1 %6
 D2 C2 C>B, A,2 | A,2 (3:2:2B,2 A, C2 C2 | D>C B,2 A,4 || A,2 A,2 A,2 G,2 | A,2 C2 C2 C2 | %11
 F,2 A,2 | A,2 G,2 | A,2 F,2 G,4 | F,2 C2 C2 A,2 | D2 C2 C>B, A,2 | A,2 (3G,A,B, A,>G, F,2 | %17
 D>C B,2 A,4 |] %18
V:5
 A,,2 A,,2 C,2 D,2 | B,,2 C,2 F,2 F,2 | A,2 (3:2:2G,2 F, | =E,2 F,2 | B,,2 C,2 F,4 | %5
 F,,2 A,,2 C,2 D,2 |1 B,,2 C,2 F,2 F,2 | A,2 (3:2:2G,2 F, =E,2 F,2 | B,,2 C,2 F,4 || %9
 A,,2 C,2 E,2 E,2 | F,2 A,,2 C,2 C,2 | F,2 E,2 | D,2 E,2 | F,E, D,2 C,4 | D,2 A,,2 C,2 D,2 | %15
 B,,2 C,2 F,2 F,2 | A,2 E,2 A,,2 D,2 | B,,2 C,2 F,4 |] %18

